!!!COM:	la Rue, Pierre de
!!!CDT:	~1452///-1518/11/20/
!!!OPR:	Missa De beata virgine
!!!ONM:	1
!!!OTL:	Kyrie
!!!AGN:	Mass; Kyrie
!!!SCT:	Rue1008a
!!!SCA:	Rue1008a
!!!voices:	4
!!!voices-OPR:	4
**kern	**kern	**kern	**kern
*staff4	*staff3	*staff2	*staff1
*Ivox	*Ivox	*Ivox	*Ivox
*I"Bassus	*I"Tenor	*I"Altus	*I"Superius
*I'B	*I'T	*I'A	*I'S
*>[A,B,C]	*>[A,B,C]	*>[A,B,C]	*>[A,B,C]
*>A	*>A	*>A	*>A
*clefF4	*clefGv2	*clefGv2	*clefG2
*k[]	*k[]	*k[]	*k[]
*M3/1	*M3/1	*M3/1	*M3/1
*met(O)	*met(O)	*met(O)	*met(O)
!!section: Kyrie I
!!!OMD: Kyrie I
=1-	=1-	=1-	=1-
1A	1A	1e	0a
2A\	2A/	2e\	.
1F	1c	1A	.
.	.	.	1a
2F\	2d\	2A/	.
=2	=2	=2	=2
1E	0e	1B	1g
2E\	.	2B\	2g/
1A	.	2A/	1cc
.	1r	2e\	.
2A\	.	2c\	2cc\
=3	=3	=3	=3
1G	1d	2.g\	2.dd\
.	.	4f\	4cc\
2G\	2d\	2d\	4b\
.	.	.	4a/
1E	2c\	1e	4g/
.	.	.	4f/
.	1B	.	1g
2E\	.	2e\	.
=4	=4	=4	=4
1F	0A	1c	0a
2F\	.	2c\	.
1D	.	1f	.
.	1r	.	1r
2F\	.	2f\	.
=5	=5	=5	=5
0C	0c	0e	1g
.	.	.	2g/
.	.	.	1cc
1r	1A	1f	.
.	.	.	2cc\
=6	=6	=6	=6
1r	1G	1g	2.b\
.	.	.	4cc\
1r	2G/	2g\	2dd\
.	1A	1c	1cc
1F	.	.	.
.	2A/	2d\	4b\
.	.	.	4a/
=7	=7	=7	=7
2.E\	1B	0.e	2.g/
4F\	.	.	4a/
2G\	2B\	.	2b\
2E\	1c	.	2g/
2A\	.	.	2a/
[2G\	2B\	.	2b\
=8	=8	=8	=8
4G\]	2r	2r	1g
4E\	.	.	.
2E\	2G/	2e\	.
2D\	2A/	2f\	2r
2E\	2G/	1e	2b\
2C/	2A/	.	2cc\
2BB/	[2B\	2d\	2dd\
=9	=9	=9	=9
2.E\	2B\]	1e	2b\
.	1c	.	1ee
4D\	.	.	.
2C/	.	2A/	.
1BB	2.d\	2B\	2dd\
.	.	2.d\	2.b\
.	4G/	.	.
2BB/	2G/	.	.
.	.	4B\	4dd\
=10	=10	=10	=10
2AA/	2A/	2c\	2cc\
2.E\	2B\	2.g\	2b\
.	1c	.	2r
4D\	.	4f\	.
2C/	.	4e\	1ee
.	.	4d\	.
2AA/	2c\	2c\	.
[2BB/	[2d\	2B\	2dd\
=11	=11	=11	=11
2BB/]	4d\]	2.d\	2b\
.	4G/	.	.
2BB/	2G/	.	2dd\
.	.	4B\	.
2C/	2A/	2e\	2cc\
2BB/	1B	2d\	2dd\
1E	.	4G/	2.b\
.	.	4A/	.
.	2G/	4B\	.
.	.	4G/	4cc\
=12	=12	=12	=12
2F\	2A/	2d\	2a/
1E	2B\	2.e\	2.g/
.	2c\	.	.
.	.	4c\	4cc\
2D\	2d\	2f\	4b\
.	.	.	2a/
1E	1B	1e	.
.	.	.	4f#i/
.	.	.	2g#i/
=13	=13	=13	=13
0.AAl	0.Al	0.el	0.al
!!LO:LB:i:g=z
=14||	=14||	=14||	=14||
*>B	*>B	*>B	*>B
*clefF4	*clefGv2	*clefGv2	*clefG2
*k[]	*k[]	*k[]	*k[]
*M2/1	*M2/1	*M2/1	*M2/1
*met(C|)	*met(C|)	*met(C|)	*met(C|)
!!section: Christe
!!!OMD: Christe
0E	0r	1r	0r
.	.	[1B	.
=15	=15	=15	=15
1D	0r	1B]	0r
[1F	.	1A	.
=16	=16	=16	=16
2F\]	1r	1.c	0r
2E\	.	.	.
1E	[1e	.	.
.	.	2B\	.
=17	=17	=17	=17
1r	1e]	0B	0b
1G	1d	.	.
=18	=18	=18	=18
1F	1.f	2r	1a
.	.	1c	.
[1A	.	.	[1cc
.	2e\	2A/	.
=19	=19	=19	=19
2A\]	0e	2.c\	2cc\]
2G\	.	.	2b\
.	.	8B/L	.
.	.	8A/J	.
2E\	.	2G/	1b
2G\	.	2B\	.
=20	=20	=20	=20
2F\	1r	2A/	2r
2E\	.	2G/	2b\
1A	[1e	1c	2a/
.	.	.	2cc\
=21	=21	=21	=21
2G\	1e]	1r	2b\
2A\	.	.	1a
1B	1d	1G	.
.	.	.	2g/
=22	=22	=22	=22
2r	1f	1c	2a/
1A	.	.	2.cc\
.	1e	2A/	.
.	.	.	4b\
2G\	.	2B\	2b\
=23	=23	=23	=23
2A\	1r	2c\	2a/
1E	.	1B	2b\
.	[1e	.	2r
[2c\	.	[2A/	[2ee\
=24	=24	=24	=24
4c\]	0e]	2A/]	2ee\]
4B\	.	.	.
4A\	.	2.a\	1dd
4G\	.	.	.
1A	.	.	.
.	.	4g\	.
.	.	2e\	2cc#i\
=25	=25	=25	=25
0D	1d	1f	0dd
.	[1f	1d	.
=26	=26	=26	=26
2r	1f]	2r	0r
1A	.	1c	.
.	[1e	.	.
2G\	.	2B\	.
=27	=27	=27	=27
1A	2e\]	2c\	0r
.	2d\	1A	.
2F\	[1d	.	.
[2G\	.	[2B\	.
=28	=28	=28	=28
4G\]	1d]	4B\]	0r
4F\	.	4A/	.
4E\	.	4G/	.
4D\	.	4F/	.
1E	1c#i	1G	.
=29	=29	=29	=29
[0D	[0d	0A	1r
.	.	.	[1a
=30	=30	=30	=30
0D_	0d]	1.f	2a/]
.	.	.	4g/
.	.	.	4f/
.	.	.	2b-i\
.	.	4e\	[2a/
.	.	4d\	.
=31	=31	=31	=31
0D]	0r	2f\	2a/]
.	.	2e\	2g/
.	.	1d	1f
=32	=32	=32	=32
[0A	[0c	1c	1e
.	.	[1e	2r
.	.	.	[2ee\
=33	=33	=33	=33
0A_	0c_	2e\]	2ee\]
.	.	4f\	4dd\
.	.	4g\	4cc\
.	.	[1a	2ff\
.	.	.	[2ee\
=34	=34	=34	=34
0A]	0c]	2a\]	2ee\]
.	.	4g\	2dd\
.	.	4f\	.
.	.	2e\	1cc
.	.	2f\	.
=35	=35	=35	=35
0G	1d	0g	0b
.	1e	.	.
=36	=36	=36	=36
1.F	1.f	2r	2r
.	.	1c	1a
[2G\	2e\	[2B\	[2b\
=37	=37	=37	=37
1G]	1d	2B\]	2b\]
.	.	2B\	2b\
2A\	1c	1A	2cc\
[2F\	.	.	[2a/
=38	=38	=38	=38
2F\]	1d	2A/	2a/]
2F\	.	1d	4g/
.	.	.	4f/
2G\	1e	.	1e
2A\	.	2c\	.
=39	=39	=39	=39
2D\	1.f	1d	2r
1F	.	.	1a
.	.	2c\	.
[2G\	2e\	[2B\	[2b\
=40	=40	=40	=40
2G\]	1d	2B\]	2b\]
2G\	.	2g\	2b\
2A\	1c	2e\	2cc\
[2F\	.	[2f\	[2a/
=41	=41	=41	=41
2F\]	1d	4f\]	2a/]
.	.	4e\	.
2F\	.	4d\	1dd
.	.	4c\	.
2G\	1e	2B\	.
2A\	.	[2A/	2cc\
=42	=42	=42	=42
[0D	[0f	2A/]	2dd\
.	.	1d	4cc\
.	.	.	4b\
.	.	.	2a/
.	.	4c\	[2dd\
.	.	4B\	.
=43	=43	=43	=43
0D]	0f]	1A	2dd\]
.	.	.	2cc\
.	.	1d	2b\
.	.	.	2a/
=44	=44	=44	=44
0El	0el	0Bl	0gl
!!LO:LB:i:g=z
=45||	=45||	=45||	=45||
*>C	*>C	*>C	*>C
*clefF4	*clefGv2	*clefGv2	*clefG2
*k[]	*k[]	*k[]	*k[]
*M3/1	*M3/1	*M3/1	*M3/1
*met(O|)	*met(O|)	*met(O|)	*met(O|)
!!section: Kyrie II
!!!OMD: Kyrie II
1.A	[0.e	1c	1.cc
.	.	4c\	.
.	.	4d\	.
4G\	.	4e\	4b\
4F\	.	4f\	4a/
2E\	.	2g\	2g/
[2AA/	.	[2c\	[2a/
=46	=46	=46	=46
2AA/]	0.e]	2c\]	2a/]
2A\	.	4B\	2cc\
.	.	4A/	.
2E\	.	2G/	2b\
2A\	.	2c\	2a/
2G\	.	2B\	2b\
2A\	.	[2A/	2cc\
=47	=47	=47	=47
2D\	0.d	2A/]	1dd
1G	.	1B	.
.	.	.	2r
4F\	.	4A/	1dd
4E\	.	4G/	.
2F\	.	2A/	.
2G\	.	2B\	2dd\
=48	=48	=48	=48
2C/	0.c	2G/	2ee\
2.F\	.	2.A/	1cc
4G\	.	4B\	.
4A\	.	4c\	4b\
4B\	.	4d\	4a/
2c\	.	1e	2g/
2A\	.	.	2cc\
=49	=49	=49	=49
2F\	1d	2f\	2a/
2G\	.	2d\	1b
1A	2c\	2f\	.
.	2A/	1e	1a
1E	1B	.	.
.	.	2e\	2g#i/
=50	=50	=50	=50
1AA	0A	2.c\	1a
.	.	4d\	.
2r	.	2e\	2r
1A	.	2f\	1cc
.	1r	1e	.
2G\	.	.	2b\
=51	=51	=51	=51
2.F\	0c	2r	1a
.	.	2A/	.
4E\	.	.	.
2C/	.	2e\	2g/
2.F\	.	2.f\	2.a/
.	1A	.	.
4G\	.	4e\	4b\
2A\	.	4c\	2cc\
.	.	4d\	.
=52	=52	=52	=52
1.E	0.G	0e	2b\
.	.	.	2g/
.	.	.	2b\
4D\	.	.	2cc\
4C/	.	.	.
1BB	.	1d	2.dd\
.	.	.	4b\
=53	=53	=53	=53
0AA	0A	2r	2cc\
.	.	1e	1a
.	.	2.c\	2cc\
2r	1G	.	2b\
.	.	4d\	.
[2E\	.	[2e\	[2g/
=54	=54	=54	=54
4E\]	1A	4e\]	2g/]
4F\	.	4d\	.
2G\	.	2B\	2b\
2F\	0A	2c\	2a/
2.D\	.	2.d\	1f
4E\	.	4c\	.
2F\	.	2A/	2a/
=55	=55	=55	=55
2E\	0c	1e	2g/
2.C/	.	.	2e/
.	.	2r	1g
4D\	.	.	.
2E\	.	2e\	.
2D\	1d	2A/	2f/
[2G\	.	[2B\	2d/
=56	=56	=56	=56
2G\]	2B\	2B\]	1g
2E\	1c	2e\	.
1F	.	2c\	1a
.	2d\	2f\	.
2G\	2B\	2d\	2b\
2E\	[2c\	2e\	2g/
=57	=57	=57	=57
1F	2c\]	2c\	1a
.	2d\	2f\	.
2G\	2B\	2d\	2b\
2C/	2c\	2e\	2g/
1G	2d\	2B\	2r
.	[2B\	[2e\	[2g/
=58	=58	=58	=58
1E	2B\]	4e\]	4g/]
.	.	4f\	4a/
.	2e\	2.g\	1b
2F\	2c\	.	.
.	.	4a\	.
2D\	2d\	2f\	1a
1E	1B	[1el	.
.	.	.	2g#i/
=59	=59	=59	=59
0.AAl	0.Al	0.e]	0.al
==	==	==	==
*-	*-	*-	*-
!!!RDF**kern: l=long note in original notation
!!!RDF**kern: i=editorial accidental
!!!RDF**kern: V=start of tuplet marker
!!!RDF**kern: Z=end of tuplet marker
!!!ENC:	Jesse Rodin/Chris Gage 09-11-2012
!!!END:	2012/09/18/
!!!EED:	Jesse Rodin
!!!EEV:	2012/09/28/
!!!ONB:	Translated from MusicXML and edited on 2012/09/28/ by Craig Sapp
!!muse2ps: T^@{OPR}^u^@{ONM}{. }@{OTL}^C^@{COM}^i2I150v85,85,85,150Q8c120
